X:1
T:Brunswick, 86.86.86
T:Adapted from George F. Handel (1685-1759)
T:Brunswick, 86.86.86
T:Public Domain
C:Adapted from George F. Handel (1685-1759)
Z:Public Domain
%%score ( 1 2 ) ( 3 4 )
L:1/8
M:3/4
K:Eb
V:1 treble 
V:2 treble 
V:3 bass 
V:4 bass 
V:1
 [B,E]2 [B,G]2 [DA]2 | [EB]4 [Ee]2 | [E_d]4 [Ec]2 | [EB]4 [Ec]2 | (F2 G2) [EA]2 | (A>B c2) (E_D) | %6
 [CA]6 | [EG]2 [FA]2 [EG]2 | [DF]4 E2 | (e2 c2) [FA]2 | [DF]4 [B,G]2 | (C2 [B,D]2) [B,E]2 | %12
 (E>F [EG]2) [DF]2 | E6 | [EB]2 [Ee]2 [E_d]2 | [Ec]4 [DB]2 | (E2 z G) [FA]2 | [EG]6 | %18
 [Ec]2 [Fd]2 [Ge]2 | [EG]4 [DF]2 | E6 |] %21
V:2
 x6 | x6 | x6 | x6 | _D4 x2 | E4 B2 | x6 | x6 | x4 E2 | E4 x2 | x6 | C2 x4 | B,2 x4 | E6 | x6 | %15
 x6 | A3 C2 x | x6 | x6 | x6 | E6 |] %21
V:3
 [E,G,]2 E,2 [E,F,]2 | [E,G,]4 [C,A,]2 | [G,,B,]4 [A,,A,]2 | [E,G,]4 [A,,A,]2 | (A,2 B,2) [C,C]2 | %5
 (C>B, A,2) [E,G,]2 | [A,,A,]6 | [E,B,]2 [F,B,]2 [E,B,]2 | (B,2 A,2) [C,G,]2 | %9
 ([G,,B,]2 [A,,A,]2) [A,,C]2 | [B,,B,]4 [E,G,]2 | (E,2 F,2) [G,,G,]2 | (G,>A, B,2) (B,A,) | %13
 [E,G,]6 | [E,G,]2 [G,B,]2 [E,G,]2 | (A,3 G,) [B,,F,]2 | (C,2 F,2) [D,B,]2 | [E,B,]6 | %18
 [A,C]2 [F,A,]2 [E,B,]2 | B,4 (B,A,) | [E,G,]6 |] %21
V:4
 x2 E,2 x2 | x6 | x6 | x6 | _D,4 x2 | E,4 x2 | x6 | x6 | B,,4 x2 | x6 | x6 | A,,4 x2 | B,,4 B,,2 | %13
 x6 | x6 | A,,4 x2 | C4 x2 | x6 | x6 | B,4 B,,2 | x6 |] %21

